Adwaita++-Dark/actions/16/new-24h-appointment.svg

<svg height="16" viewBox="0 0 16 16" width="16" xmlns="http://www.w3.org/2000/svg">
  <path d="m8.5 1a7.5 7.5 0 0 0 -7.5 7.5 7.5 7.5 0 0 0 7.5 7.5 7.5 7.5 0 0 0 7.5-7.5 7.5 7.5 0 0 0 -7.5-7.5zm-4.5 3h3 1v1 3 1h-3v3h3v1h-4v-1-3-1h1 2v-3h-3zm5 0h1v4h2v-4h1v4 1 4h-1v-4h-3v-1z" fill="#e6ddff"/>
</svg>

<svg xmlns="http://www.w3.org/2000/svg" width="16" height="16" version="1.1" viewBox="0 0 16 16">
 <defs>
  <style id="current-color-scheme" type="text/css">
   .ColorScheme-Text { color:#E6DDFF; } .ColorScheme-Highlight { color:#4285f4; }
  </style>
 </defs>
 <path style="fill:currentColor" class="ColorScheme-Text" d="M 8.5 1 A 7.5 7.5 0 0 0 1 8.5 A 7.5 7.5 0 0 0 8.5 16 A 7.5 7.5 0 0 0 16 8.5 A 7.5 7.5 0 0 0 8.5 1 z M 4 4 L 7 4 L 8 4 L 8 5 L 8 8 L 8 9 L 5 9 L 5 12 L 8 12 L 8 13 L 4 13 L 4 12 L 4 9 L 4 8 L 5 8 L 7 8 L 7 5 L 4 5 L 4 4 z M 9 4 L 10 4 L 10 8 L 12 8 L 12 4 L 13 4 L 13 8 L 13 9 L 13 13 L 12 13 L 12 9 L 9 9 L 9 8 L 9 4 z"/>
</svg>
